X:3185
T:Coleman's, Jackie
M:C
L:1/8
K:D Major
B|AFF2 EFDE|F2AF BFAF|E2BE dEBE|ABde fedB|!
AFF2 EFDE|F2AF BFAF|E2BE dEBE|ABde fdd:|!
g|fddc dfag|fdd2 fagf|eAA2 eAfA|eAA2 efge|!
fddc dfag|fddc dfaf|g3f gbag|faeg fdd:|!


